SVG_Azure_All/IoT Digital Twin.svg

<?xml version="1.0" encoding="UTF-8" standalone="no"?>
<!-- Generated by Microsoft Visio, SVG Export IoT Digital Twin.svg Page-1 -->

<svg
   xmlns:dc="http://purl.org/dc/elements/1.1/"
   xmlns:cc="http://creativecommons.org/ns#"
   xmlns:rdf="http://www.w3.org/1999/02/22-rdf-syntax-ns#"
   xmlns:svg="http://www.w3.org/2000/svg"
   xmlns="http://www.w3.org/2000/svg"
   xmlns:sodipodi="http://sodipodi.sourceforge.net/DTD/sodipodi-0.dtd"
   xmlns:inkscape="http://www.inkscape.org/namespaces/inkscape"
   width="0.7873832in"
   height="0.78739417in"
   viewBox="0 0 56.691498 56.692691"
   xml:space="preserve"
   class="st5"
   version="1.1"
   id="svg60"
   sodipodi:docname="IoT Digital Twin.svg"
   style="font-size:12px;overflow:visible;color-interpolation-filters:sRGB;fill:none;fill-rule:evenodd;stroke-linecap:square;stroke-miterlimit:3"
   inkscape:version="0.92.5 (2060ec1f9f, 2020-04-08)"><metadata
   id="metadata64"><rdf:RDF><cc:Work
       rdf:about=""><dc:format>image/svg+xml</dc:format><dc:type
         rdf:resource="http://purl.org/dc/dcmitype/StillImage" /></cc:Work></rdf:RDF></metadata><sodipodi:namedview
   pagecolor="#ffffff"
   bordercolor="#666666"
   borderopacity="1"
   objecttolerance="10"
   gridtolerance="10"
   guidetolerance="10"
   inkscape:pageopacity="0"
   inkscape:pageshadow="2"
   inkscape:window-width="640"
   inkscape:window-height="480"
   id="namedview62"
   showgrid="false"
   inkscape:zoom="1.4193119"
   inkscape:cx="37.795128"
   inkscape:cy="37.782599"
   inkscape:window-x="0"
   inkscape:window-y="0"
   inkscape:window-maximized="0"
   inkscape:current-layer="svg60" />
	<style
   type="text/css"
   id="style2">
	<![CDATA[
		.st1 {fill:url(#grad0-6);stroke:none;stroke-linecap:butt;stroke-width:34}
		.st2 {fill:url(#grad0-10);stroke:none;stroke-linecap:butt;stroke-width:34}
		.st3 {fill:url(#grad0-14);stroke:none;stroke-linecap:butt;stroke-width:34}
		.st4 {fill:#ffffff;stroke:none;stroke-linecap:butt;stroke-width:34}
		.st5 {fill:none;fill-rule:evenodd;font-size:12px;overflow:visible;stroke-linecap:square;stroke-miterlimit:3}
	]]>
	</style>

	<defs
   id="Patterns_And_Gradients">
		<linearGradient
   id="grad0-6"
   x1="0"
   y1="67.435425"
   x2="52.027802"
   y2="67.435425"
   gradientTransform="scale(0.95794937,1.0438965)"
   gradientUnits="userSpaceOnUse">
			<stop
   offset="0"
   stop-color="#a67af4"
   stop-opacity="1"
   id="stop4" />
			<stop
   offset="1"
   stop-color="#773adc"
   stop-opacity="1"
   id="stop6" />
		</linearGradient>
		<linearGradient
   id="grad0-10"
   x1="-3.0270313e-05"
   y1="81.476071"
   x2="38.240389"
   y2="81.476071"
   gradientTransform="scale(0.95997978,1.0416886)"
   gradientUnits="userSpaceOnUse">
			<stop
   offset="0"
   stop-color="#50e6ff"
   stop-opacity="1"
   id="stop9" />
			<stop
   offset="0.995"
   stop-color="#32bedd"
   stop-opacity="1"
   id="stop11" />
		</linearGradient>
		<linearGradient
   id="grad0-14"
   x1="0"
   y1="97.216573"
   x2="31.747142"
   y2="97.216573"
   gradientTransform="scale(1.0341088,0.96701619)"
   gradientUnits="userSpaceOnUse">
			<stop
   offset="0"
   stop-color="#ffffff"
   stop-opacity="1"
   id="stop14" />
			<stop
   offset="1"
   stop-color="#9cebff"
   stop-opacity="1"
   id="stop16" />
		</linearGradient>
	</defs>
	<g
   id="g58"
   transform="translate(-34.000441,-33.998915)">
		<title
   id="title20">Page-1</title>
		<g
   id="group3922-1"
   transform="translate(34,-34.0157)">
			<title
   id="title22">IoT Digital Twin</title>
			<g
   id="group3923-2">
				<title
   id="title24">Sheet.3923</title>
				<g
   id="shape3924-3"
   transform="translate(0,-2.38099)">
					<title
   id="title26">Sheet.3924</title>
					<path
   d="M 45.63,80.95 29.08,71.5 a 8.35978,8.26413 -180 0 0 -8.35,0 L 4.18,80.95 A 8.36296,8.26728 -180 0 0 0,88.1 V 107 a 8.36296,8.26728 -180 0 0 4.18,7.15 l 16.56,9.45 a 8.35978,8.26413 -180 0 0 8.36,0 l 16.56,-9.45 A 8.36296,8.26728 -180 0 0 49.84,107 V 88.1 a 8.36296,8.26728 -180 0 0 -4.21,-7.15 z"
   class="st1"
   id="path28"
   inkscape:connector-curvature="0"
   style="fill:url(#grad0-6);stroke:none;stroke-width:34;stroke-linecap:butt" />
				</g>
				<g
   id="shape3925-7"
   transform="translate(19.9819)">
					<title
   id="title31">Sheet.3925</title>
					<path
   d="M 33.34,92.4 21.7,85.76 a 6.71904,6.64217 -180 0 0 -6.71,0 L 3.35,92.4 A 6.69037,6.61383 -180 0 0 0,98.15 v 13.28 a 6.70948,6.63272 -180 0 0 3.35,5.75 l 11.64,6.64 a 6.71904,6.64217 -180 0 0 6.71,0 l 11.64,-6.64 a 6.71586,6.63902 -180 0 0 3.37,-5.75 V 98.15 A 6.71267,6.63587 -180 0 0 33.34,92.4 Z"
   class="st2"
   id="path33"
   inkscape:connector-curvature="0"
   style="fill:url(#grad0-10);stroke:none;stroke-width:34;stroke-linecap:butt" />
				</g>
				<g
   id="shape3926-11"
   transform="translate(8.69748,-18.4934)">
					<title
   id="title36">Sheet.3926</title>
					<path
   d="m 15.11,95.84 3.35,-1.83 14.37,29.44 -1.17,1.26 H 0 l 0.36,-3.77 h 26.7 z"
   class="st3"
   id="path38"
   inkscape:connector-curvature="0"
   style="fill:url(#grad0-14);stroke:none;stroke-width:34;stroke-linecap:butt" />
				</g>
				<g
   id="shape3927-15"
   transform="translate(3.5905,-15.4794)">
					<title
   id="title41">Sheet.3927</title>
					<ellipse
   cx="4.7788401"
   cy="119.985"
   rx="4.7788401"
   ry="4.7241602"
   class="st4"
   id="ellipse43"
   style="fill:#ffffff;stroke:none;stroke-width:34;stroke-linecap:butt" />
				</g>
				<g
   id="shape3928-17"
   transform="translate(30.8617,-12.5347)">
					<title
   id="title46">Sheet.3928</title>
					<ellipse
   cx="7.46773"
   cy="117.326"
   rx="7.46773"
   ry="7.3822899"
   class="st4"
   id="ellipse48"
   style="fill:#ffffff;stroke:none;stroke-width:34;stroke-linecap:butt" />
				</g>
				<g
   id="shape3929-19"
   transform="translate(20.5044,-43.9094)">
					<title
   id="title51">Sheet.3929</title>
					<ellipse
   cx="4.7788401"
   cy="119.985"
   rx="4.7788401"
   ry="4.7241602"
   class="st4"
   id="ellipse53"
   style="fill:#ffffff;stroke:none;stroke-width:34;stroke-linecap:butt" />
				</g>
			</g>
		</g>
	</g>
</svg>

<?xml version="1.0" encoding="UTF-8" standalone="no"?>
<!DOCTYPE svg PUBLIC "-//W3C//DTD SVG 1.1//EN" "http://www.w3.org/Graphics/SVG/1.1/DTD/svg11.dtd">
<!-- Generated by Microsoft Visio, SVG Export IoT Digital Twin.svg Page-1 -->
<svg xmlns="http://www.w3.org/2000/svg" xmlns:xlink="http://www.w3.org/1999/xlink" xmlns:ev="http://www.w3.org/2001/xml-events"
		width="1.73185in" height="1.73206in" viewBox="0 0 124.693 124.709" xml:space="preserve" color-interpolation-filters="sRGB"
		class="st5">
	<style type="text/css">
	<![CDATA[
		.st1 {fill:url(#grad0-6);stroke:none;stroke-linecap:butt;stroke-width:34}
		.st2 {fill:url(#grad0-10);stroke:none;stroke-linecap:butt;stroke-width:34}
		.st3 {fill:url(#grad0-14);stroke:none;stroke-linecap:butt;stroke-width:34}
		.st4 {fill:#ffffff;stroke:none;stroke-linecap:butt;stroke-width:34}
		.st5 {fill:none;fill-rule:evenodd;font-size:12px;overflow:visible;stroke-linecap:square;stroke-miterlimit:3}
	]]>
	</style>

	<defs id="Patterns_And_Gradients">
		<linearGradient id="grad0-6" x1="0" y1="0" x2="1" y2="0" gradientTransform="rotate(99.053847107295 0.5 0.5)">
			<stop offset="0" stop-color="#a67af4" stop-opacity="1"/>
			<stop offset="1" stop-color="#773adc" stop-opacity="1"/>
		</linearGradient>
		<linearGradient id="grad0-10" x1="0" y1="0" x2="1" y2="0" gradientTransform="rotate(71.098329049756 0.5 0.5)">
			<stop offset="0" stop-color="#50e6ff" stop-opacity="1"/>
			<stop offset="0.995" stop-color="#32bedd" stop-opacity="1"/>
		</linearGradient>
		<linearGradient id="grad0-14" x1="0" y1="0" x2="1" y2="0" gradientTransform="rotate(29.36783521474 0.5 0.5)">
			<stop offset="0" stop-color="#ffffff" stop-opacity="1"/>
			<stop offset="1" stop-color="#9cebff" stop-opacity="1"/>
		</linearGradient>
	</defs>
	<g>
		<title>Page-1</title>
		<g id="group3838-1" transform="translate(34,-34.0157)">
			<title>IoT Digital Twin</title>
			<g id="group3839-2">
				<title>Sheet.3839</title>
				<g id="shape3840-3" transform="translate(-2.79776E-13,-2.38099)">
					<title>Sheet.3840</title>
					<path d="M45.63 80.95 L29.08 71.5 A8.35978 8.26413 -180 0 0 20.73 71.5 L4.18 80.95 A8.36296 8.26728 -180 0 0
								 0 88.1 L0 107 A8.36296 8.26728 -180 0 0 4.18 114.15 L20.74 123.6 A8.35978 8.26413 -180 0 0 29.1
								 123.6 L45.66 114.15 A8.36296 8.26728 -180 0 0 49.84 107 L49.84 88.1 A8.36296 8.26728 -180 0 0 45.63
								 80.95 Z" class="st1"/>
				</g>
				<g id="shape3841-7" transform="translate(19.9819,1.42109E-14)">
					<title>Sheet.3841</title>
					<path d="M33.34 92.4 L21.7 85.76 A6.71904 6.64217 -180 0 0 14.99 85.76 L3.35 92.4 A6.69037 6.61383 -180 0 0 -0
								 98.15 L0 111.43 A6.70948 6.63272 -180 0 0 3.35 117.18 L14.99 123.82 A6.71904 6.64217 -180 0 0 21.7
								 123.82 L33.34 117.18 A6.71586 6.63902 -180 0 0 36.71 111.43 L36.71 98.15 A6.71267 6.63587 -180 0
								 0 33.34 92.4 Z" class="st2"/>
				</g>
				<g id="shape3842-11" transform="translate(8.69748,-18.4934)">
					<title>Sheet.3842</title>
					<path d="M15.11 95.84 L18.46 94.01 L32.83 123.45 L31.66 124.71 L0 124.71 L0.36 120.94 L27.06 120.94 L15.11 95.84
								 Z" class="st3"/>
				</g>
				<g id="shape3843-15" transform="translate(3.5905,-15.4794)">
					<title>Sheet.3843</title>
					<ellipse cx="4.77884" cy="119.985" rx="4.77884" ry="4.72416" class="st4"/>
				</g>
				<g id="shape3844-17" transform="translate(30.8617,-12.5347)">
					<title>Sheet.3844</title>
					<ellipse cx="7.46773" cy="117.326" rx="7.46773" ry="7.38229" class="st4"/>
				</g>
				<g id="shape3845-19" transform="translate(20.5044,-43.9094)">
					<title>Sheet.3845</title>
					<ellipse cx="4.77884" cy="119.985" rx="4.77884" ry="4.72416" class="st4"/>
				</g>
			</g>
		</g>
	</g>
</svg>
